resources/azure-containerapps.svg

<?xml version="1.0" standalone="no"?>
<!DOCTYPE svg PUBLIC "-//W3C//DTD SVG 1.0//EN" "http://www.w3.org/TR/2001/REC-SVG-20010904/DTD/svg10.dtd">
<svg xmlns="http://www.w3.org/2000/svg" xmlns:xlink="http://www.w3.org/1999/xlink" id="body_1" width="18" height="18">

<defs>
    <linearGradient transform="matrix(1 0 0 1 0 0)"  id="1" x1="8.798" y1="8.703" x2="14.683" y2="8.703">
        <stop stop-color="#773ADC" offset="0%"/>
        <stop stop-color="#552F99" offset="100%"/>
    </linearGradient>
    <linearGradient transform="matrix(1 0 0 1 0 0)"  id="229" x1="5.764" y1="3.777" x2="5.764" y2="13.78">
        <stop stop-color="#A67AF4" offset="0%"/>
        <stop stop-color="#773ADC" offset="100%"/>
    </linearGradient>
</defs>

<g transform="matrix(1 0 0 1 0 0)">
	<g>
		<g>
			<g>
				<g>
                    <path d="M16.932 11.578C 15.726346 14.931671 12.545805 17.168053 8.981999 17.168C 8.193456 17.171295 7.4086146 17.060139 6.6519995 16.838C 6.76703 16.576197 6.828243 16.293936 6.8319993 16.008C 6.8419995 16.008 6.8619995 16.018 6.8719993 16.018C 7.5572376 16.218985 8.267897 16.320026 8.981999 16.317999C 11.8940735 16.312197 14.55002 14.652714 15.831999 12.037998L15.831999 12.037998L15.841999 12.027998L16.932 11.578z" stroke="none" fill="#32BEDD" fill-rule="nonzero" />
                    <path d="M3.582 14.068C 3.3314335 14.207262 3.1132908 14.398136 2.942 14.628C 2.2486434 13.917178 1.6836271 13.091644 1.272 12.188L1.272 12.188L2.3119998 12.417999L2.3119998 12.6779995C 2.3099966 12.960871 2.5058398 13.206717 2.7819998 13.268L2.7819998 13.268L2.922 13.297999C 3.1093311 13.557116 3.3166294 13.801192 3.5419998 14.028L3.5419998 14.028L3.582 14.068z" stroke="none" fill="#32BEDD" fill-rule="nonzero" />
                    <path d="M12.352 0.958C 12.211798 1.2085893 12.120192 1.483407 12.082 1.768C 12.061999 1.758 12.032 1.748 12.012 1.738C 11.056971 1.3190432 10.024878 1.1044493 8.982 1.108C 6.6955156 1.1118221 4.5308356 2.1391277 3.0820003 3.908L3.0820003 3.908L2.7920003 3.968C 2.5155215 4.0244107 2.31571 4.265849 2.3120003 4.548L2.3120003 4.548L2.3120003 5.008L1.2920003 5.198C 2.6704779 2.1920657 5.6750617 0.2658491 8.982 0.268C 10.140337 0.2686987 11.286598 0.5033932 12.352 0.958z" stroke="none" fill="#32BEDD" fill-rule="nonzero" />
                    <path d="M16.872 5.7L15.782 5.3199997C 15.582746 4.909485 15.341453 4.520735 15.061999 4.16C 15.041999 4.1299996 15.021999 4.1099997 15.011999 4.0899997C 15.280349 3.991023 15.52544 3.837841 15.731999 3.6399996C 16.213913 4.2651153 16.59828 4.959672 16.872 5.7z" stroke="none" fill="#32BEDD" fill-rule="nonzero" />
                    <path d="M10.072 11.908L12.6119995 12.468L8.672 14.1C 8.651999 14.1 8.642 14.110001 8.622 14.110001C 8.540045 14.107898 8.474103 14.041956 8.472 13.960001L8.472 13.960001L8.472 3.448C 8.474103 3.366044 8.540044 3.3001025 8.622 3.2979999C 8.639281 3.2964435 8.656645 3.2999163 8.672 3.3079998L8.672 3.3079998L13.132 4.868L10.082 5.438C 9.828623 5.4954295 9.647068 5.7182465 9.642 5.978L9.642 5.978L9.642 11.378C 9.640201 11.634746 9.820395 11.856847 10.072 11.908z" stroke="none" fill="#FFFFFF" fill-rule="nonzero" />
					<g>
						<g>
                            <path d="M1.1 5.668L2.31 5.438L2.31 11.988001L1.0799999 11.718L0.089999914 11.498C 0.03342268 11.487388 -0.0056540146 11.435286 -8.940697E-08 11.378L-8.940697E-08 11.378L-8.940697E-08 5.978C -0.0017760992 5.9218683 0.035615966 5.8720126 0.089999914 5.8580003L0.089999914 5.8580003L1.1 5.668z" stroke="none" fill="#A67AF4" fill-rule="nonzero" />
						</g>
						<g>
							<g>
								<g>
                                    <path d="M10.072 11.908L12.6119995 12.468L8.672 14.1C 8.651999 14.1 8.642 14.110001 8.622 14.110001C 8.540045 14.107898 8.474103 14.041956 8.472 13.960001L8.472 13.960001L8.472 3.448C 8.474103 3.366044 8.540044 3.3001025 8.622 3.2979999C 8.639281 3.2964435 8.656645 3.2999163 8.672 3.3079998L8.672 3.3079998L13.132 4.868L10.082 5.438C 9.828623 5.4954295 9.647068 5.7182465 9.642 5.978L9.642 5.978L9.642 11.378C 9.640201 11.634746 9.820395 11.856847 10.072 11.908z" stroke="none" fill="url(#1)" />
                                    <path d="M8.586 3.3L2.878 4.378C 2.7956438 4.3955994 2.737092 4.468789 2.738 4.553L2.738 4.553L2.738 12.68C 2.7372608 12.762935 2.7942073 12.83526 2.875 12.854L2.875 12.854L8.581 14.1C 8.632872 14.110215 8.686587 14.096571 8.727297 14.06284C 8.768005 14.02911 8.791396 13.978867 8.791 13.926001L8.791 13.926001L8.791 3.478C 8.791802 3.431585 8.77413 3.386753 8.741873 3.3533702C 8.709615 3.3199873 8.665415 3.3007889 8.619 3.3L8.619 3.3L8.586 3.3z" stroke="none" fill="url(#229)" />
								</g>
							</g>
                            <path d="M5.948 4.921L5.948 12.483L7.934 12.814L7.934 4.564L5.948 4.921L5.948 4.921" stroke="none" fill="#B796F9" fill-rule="nonzero" fill-opacity="0.49803922" />
                            <path d="M3.509 5.329L3.509 11.954L5.238 12.317L5.238 5.031L3.509 5.329L3.509 5.329" stroke="none" fill="#B796F9" fill-rule="nonzero" fill-opacity="0.49803922" />
						</g>
					</g>
				</g>
                <path d="M16 2.048C 15.997239 3.0159526 15.211294 3.798913 14.243339 3.7979922C 13.275382 3.7970717 12.490929 3.0126176 12.490008 2.0446618C 12.489088 1.0767057 13.272048 0.29076195 14.24 0.2880001C 14.707107 0.28693485 15.155389 0.47202086 15.485683 0.80231595C 15.815979 1.132611 16.001064 1.5808935 16 2.048z" stroke="none" fill="#32BEDD" fill-rule="nonzero" />
                <path d="M6.409 15.973C 6.4090004 16.458735 6.2372675 16.873335 5.8938007 17.2168C 5.550335 17.560268 5.1357346 17.732 4.65 17.732C 4.1642656 17.732 3.7496655 17.560268 3.4061995 17.2168C 3.0627334 16.873335 2.8910003 16.458735 2.8910003 15.973C 2.8910003 15.487266 3.0627334 15.072665 3.4061995 14.729198C 3.7496655 14.385733 4.1642656 14.214 4.65 14.214C 5.1357346 14.214 5.550335 14.385733 5.8938007 14.729198C 6.2372675 15.072665 6.4090004 15.487266 6.409 15.973C 6.4090004 15.993468 6.4086432 16.013931 6.4079285 16.034388" stroke="none" fill="#32BEDD" fill-rule="nonzero" />
			</g>
            <path d="M18 6.689L18 10.533C 17.998672 10.619964 17.946684 10.698142 17.867 10.733L17.867 10.733L17.101 11.049L14.031 12.316999L14.02 12.316999C 14.007406 12.31892 13.994595 12.31892 13.982 12.316999C 13.955479 12.316999 13.930043 12.306463 13.911289 12.28771C 13.892536 12.268956 13.882 12.243521 13.882 12.216999L13.882 12.216999L13.882 5.234C 13.882295 5.1969247 13.903079 5.163055 13.936 5.1460004L13.936 5.1460004L13.955 5.1460004C 13.961178 5.144012 13.967823 5.144012 13.974 5.1460004C 13.985902 5.144902 13.997837 5.1477103 14.008 5.1540003L14.008 5.1540003L14.019 5.1540003L14.031 5.1540003L17.05 6.2L17.849998 6.482C 17.940449 6.509991 18.001566 6.59433 18 6.689z" stroke="none" fill="#773ADC" fill-rule="nonzero" />
            <path d="M13.959 5.14L10.158999 5.855C 10.104103 5.8668942 10.065201 5.915836 10.065999 5.972L10.065999 5.972L10.065999 11.3810005C 10.065471 11.436192 10.10327 11.484375 10.156999 11.497001L10.156999 11.497001L13.956999 12.328001C 13.987124 12.334488 14.018593 12.328613 14.044349 12.311693C 14.070104 12.294774 14.087991 12.268226 14.093999 12.238001C 14.0950365 12.229364 14.0950365 12.220636 14.093999 12.212001L14.093999 12.212001L14.093999 5.256C 14.094557 5.191767 14.043225 5.139096 13.978999 5.138C 13.972277 5.137844 13.96556 5.1385155 13.959 5.14z" stroke="none" fill="#A67AF4" fill-rule="nonzero" />
		</g>
	</g>
</g>
</svg>

<svg xmlns="http://www.w3.org/2000/svg" width="18" height="18" viewBox="0 0 18 18">
  <defs>
    <linearGradient id="b27f1ad0-7d11-4247-9da3-91bce6211f32" x1="8.798" y1="8.703" x2="14.683" y2="8.703" gradientUnits="userSpaceOnUse">
      <stop offset="0.001" stop-color="#773adc"/>
      <stop offset="1" stop-color="#552f99"/>
    </linearGradient>
    <linearGradient id="b2f92112-4ca9-4b17-a019-c9f26c1a4a8f" x1="5.764" y1="3.777" x2="5.764" y2="13.78" gradientUnits="userSpaceOnUse">
      <stop offset="0" stop-color="#a67af4"/>
      <stop offset="0.999" stop-color="#773adc"/>
    </linearGradient>
  </defs>
  <g id="b8a0486a-5501-4d92-b540-a766c4b3b548">
    <g>
      <g>
        <g>
          <path d="M16.932,11.578a8.448,8.448,0,0,1-7.95,5.59,8.15,8.15,0,0,1-2.33-.33,2.133,2.133,0,0,0,.18-.83c.01,0,.03.01.04.01a7.422,7.422,0,0,0,2.11.3,7.646,7.646,0,0,0,6.85-4.28l.01-.01Z" fill="#32bedd"/>
          <path d="M3.582,14.068a2.025,2.025,0,0,0-.64.56,8.6,8.6,0,0,1-1.67-2.44l1.04.23v.26a.6.6,0,0,0,.47.59l.14.03a6.136,6.136,0,0,0,.62.73Z" fill="#32bedd"/>
          <path d="M12.352.958a2.28,2.28,0,0,0-.27.81c-.02-.01-.05-.02-.07-.03a7.479,7.479,0,0,0-3.03-.63,7.643,7.643,0,0,0-5.9,2.8l-.29.06a.6.6,0,0,0-.48.58v.46l-1.02.19A8.454,8.454,0,0,1,8.982.268,8.6,8.6,0,0,1,12.352.958Z" fill="#32bedd"/>
          <path d="M16.872,5.7l-1.09-.38a6.6,6.6,0,0,0-.72-1.16c-.02-.03-.04-.05-.05-.07a2.083,2.083,0,0,0,.72-.45A7.81,7.81,0,0,1,16.872,5.7Z" fill="#32bedd"/>
          <path d="M10.072,11.908l2.54.56L8.672,14.1c-.02,0-.03.01-.05.01a.154.154,0,0,1-.15-.15V3.448a.154.154,0,0,1,.15-.15.09.09,0,0,1,.05.01l4.46,1.56-3.05.57a.565.565,0,0,0-.44.54v5.4A.537.537,0,0,0,10.072,11.908Z" fill="#fff"/>
          <g>
            <g id="e918f286-5032-4942-ad29-ea17e6f1cc90">
              <path d="M1.1,5.668l1.21-.23v6.55l-1.23-.27-.99-.22a.111.111,0,0,1-.09-.12v-5.4a.12.12,0,0,1,.09-.12Z" fill="#a67af4"/>
            </g>
            <g>
              <g id="a47a99dd-4d47-4c70-8c42-c5ac274ce496">
                <g>
                  <path d="M10.072,11.908l2.54.56L8.672,14.1c-.02,0-.03.01-.05.01a.154.154,0,0,1-.15-.15V3.448a.154.154,0,0,1,.15-.15.09.09,0,0,1,.05.01l4.46,1.56-3.05.57a.565.565,0,0,0-.44.54v5.4A.537.537,0,0,0,10.072,11.908Z" fill="url(#b27f1ad0-7d11-4247-9da3-91bce6211f32)"/>
                  <path d="M8.586,3.3,2.878,4.378a.177.177,0,0,0-.14.175V12.68a.177.177,0,0,0,.137.174L8.581,14.1a.176.176,0,0,0,.21-.174V3.478A.175.175,0,0,0,8.619,3.3Z" fill="url(#b2f92112-4ca9-4b17-a019-c9f26c1a4a8f)"/>
                </g>
              </g>
              <polygon points="5.948 4.921 5.948 12.483 7.934 12.814 7.934 4.564 5.948 4.921" fill="#b796f9" opacity="0.5"/>
              <polygon points="3.509 5.329 3.509 11.954 5.238 12.317 5.238 5.031 3.509 5.329" fill="#b796f9" opacity="0.5"/>
            </g>
          </g>
        </g>
        <path d="M16,2.048a1.755,1.755,0,1,1-1.76-1.76A1.756,1.756,0,0,1,16,2.048Z" fill="#32bedd"/>
        <circle cx="4.65" cy="15.973" r="1.759" fill="#32bedd"/>
      </g>
      <path d="M18,6.689v3.844a.222.222,0,0,1-.133.2l-.766.316-3.07,1.268-.011,0a.126.126,0,0,1-.038,0,.1.1,0,0,1-.1-.1V5.234a.1.1,0,0,1,.054-.088l0,0,.019,0a.031.031,0,0,1,.019,0,.055.055,0,0,1,.034.008l.011,0,.012,0L17.05,6.2l.8.282A.213.213,0,0,1,18,6.689Z" fill="#773adc"/>
      <path d="M13.959,5.14l-3.8.715a.118.118,0,0,0-.093.117v5.409a.118.118,0,0,0,.091.116l3.8.831a.115.115,0,0,0,.137-.09.109.109,0,0,0,0-.026V5.256a.117.117,0,0,0-.115-.118A.082.082,0,0,0,13.959,5.14Z" fill="#a67af4"/>
    </g>
  </g>
</svg>
